static/files/3DLUTP/unsaturated.cube
TITLE "Generated by Resolve"
LUT_3D_SIZE 9
0 0 0
0.0262455 0.0262455 0.0262455
0.052491 0.052491 0.052491
0.0787518 0.0787518 0.0787518
0.104997 0.104997 0.104997
0.131243 0.131243 0.131243
0.157504 0.157504 0.157504
0.183749 0.183749 0.183749
0.209995 0.209995 0.209995
0.0874952 0.0874952 0.0874952
0.113741 0.113741 0.113741
0.139986 0.139986 0.139986
0.166232 0.166232 0.166232
0.192493 0.192493 0.192493
0.218738 0.218738 0.218738
0.244984 0.244984 0.244984
0.271244 0.271244 0.271244
0.29749 0.29749 0.29749
0.17499 0.17499 0.17499
0.201236 0.201236 0.201236
0.227497 0.227497 0.227497
0.253742 0.253742 0.253742
0.279988 0.279988 0.279988
0.306233 0.306233 0.306233
0.332494 0.332494 0.332494
0.35874 0.35874 0.35874
0.384985 0.384985 0.384985
0.262501 0.262501 0.262501
0.288746 0.288746 0.288746
0.314992 0.314992 0.314992
0.341238 0.341238 0.341238
0.367498 0.367498 0.367498
0.393744 0.393744 0.393744
0.419989 0.419989 0.419989
0.44625 0.44625 0.44625
0.472496 0.472496 0.472496
0.349996 0.349996 0.349996
0.376242 0.376242 0.376242
0.402487 0.402487 0.402487
0.428748 0.428748 0.428748
0.454994 0.454994 0.454994
0.481239 0.481239 0.481239
0.5075 0.5075 0.5075
0.533745 0.533745 0.533745
0.559991 0.559991 0.559991
0.437491 0.437491 0.437491
0.463737 0.463737 0.463737
0.489998 0.489998 0.489998
0.516243 0.516243 0.516243
0.542489 0.542489 0.542489
0.56875 0.56875 0.56875
0.594995 0.594995 0.594995
0.621241 0.621241 0.621241
0.647501 0.647501 0.647501
0.525002 0.525002 0.525002
0.551247 0.551247 0.551247
0.577493 0.577493 0.577493
0.603738 0.603738 0.603738
0.629999 0.629999 0.629999
0.656245 0.656245 0.656245
0.68249 0.68249 0.68249
0.708751 0.708751 0.708751
0.734997 0.734997 0.734997
0.612497 0.612497 0.612497
0.638743 0.638743 0.638743
0.665003 0.665003 0.665003
0.691249 0.691249 0.691249
0.717494 0.717494 0.717494
0.74374 0.74374 0.74374
0.770001 0.770001 0.770001
0.796246 0.796246 0.796246
0.822492 0.822492 0.822492
0.700008 0.700008 0.700008
0.726253 0.726253 0.726253
0.752499 0.752499 0.752499
0.778744 0.778744 0.778744
0.805005 0.805005 0.805005
0.83125 0.83125 0.83125
0.857496 0.857496 0.857496
0.883757 0.883757 0.883757
0.910002 0.910002 0.910002
0.0112459 0.0112459 0.0112459
0.0374914 0.0374914 0.0374914
0.0637522 0.0637522 0.0637522
0.0899977 0.0899977 0.0899977
0.116243 0.116243 0.116243
0.142504 0.142504 0.142504
0.16875 0.16875 0.16875
0.194995 0.194995 0.194995
0.221256 0.221256 0.221256
0.0987411 0.0987411 0.0987411
0.124987 0.124987 0.124987
0.151232 0.151232 0.151232
0.177493 0.177493 0.177493
0.203738 0.203738 0.203738
0.229984 0.229984 0.229984
0.256245 0.256245 0.256245
0.28249 0.28249 0.28249
0.308736 0.308736 0.308736
0.186236 0.186236 0.186236
0.212482 0.212482 0.212482
0.238743 0.238743 0.238743
0.264988 0.264988 0.264988
0.291234 0.291234 0.291234
0.317494 0.317494 0.317494
0.34374 0.34374 0.34374
0.369985 0.369985 0.369985
0.396246 0.396246 0.396246
0.273747 0.273747 0.273747
0.299992 0.299992 0.299992
0.326238 0.326238 0.326238
0.352483 0.352483 0.352483
0.378744 0.378744 0.378744
0.40499 0.40499 0.40499
0.431235 0.431235 0.431235
0.457496 0.457496 0.457496
0.483742 0.483742 0.483742
0.361242 0.361242 0.361242
0.387488 0.387488 0.387488
0.413748 0.413748 0.413748
0.439994 0.439994 0.439994
0.466239 0.466239 0.466239
0.492485 0.492485 0.492485
0.518746 0.518746 0.518746
0.544991 0.544991 0.544991
0.571237 0.571237 0.571237
0.448737 0.448737 0.448737
0.474998 0.474998 0.474998
0.501244 0.501244 0.501244
0.527489 0.527489 0.527489
0.55375 0.55375 0.55375
0.579995 0.579995 0.579995
0.606241 0.606241 0.606241
0.632502 0.632502 0.632502
0.658747 0.658747 0.658747
0.536248 0.536248 0.536248
0.562493 0.562493 0.562493
0.588739 0.588739 0.588739
0.615 0.615 0.615
0.641245 0.641245 0.641245
0.667491 0.667491 0.667491
0.693751 0.693751 0.693751
0.719997 0.719997 0.719997
0.746242 0.746242 0.746242
0.623743 0.623743 0.623743
0.649989 0.649989 0.649989
0.676249 0.676249 0.676249
0.702495 0.702495 0.702495
0.72874 0.72874 0.72874
0.755001 0.755001 0.755001
0.781247 0.781247 0.781247
0.807492 0.807492 0.807492
0.833753 0.833753 0.833753
0.711254 0.711254 0.711254
0.737499 0.737499 0.737499
0.763745 0.763745 0.763745
0.78999 0.78999 0.78999
0.816251 0.816251 0.816251
0.842496 0.842496 0.842496
0.868742 0.868742 0.868742
0.895003 0.895003 0.895003
0.921248 0.921248 0.921248
0.0224918 0.0224918 0.0224918
0.0487526 0.0487526 0.0487526
0.0749981 0.0749981 0.0749981
0.101244 0.101244 0.101244
0.127504 0.127504 0.127504
0.15375 0.15375 0.15375
0.179995 0.179995 0.179995
0.206241 0.206241 0.206241
0.232502 0.232502 0.232502
0.109987 0.109987 0.109987
0.136233 0.136233 0.136233
0.162493 0.162493 0.162493
0.188739 0.188739 0.188739
0.214984 0.214984 0.214984
0.241245 0.241245 0.241245
0.267491 0.267491 0.267491
0.293736 0.293736 0.293736
0.319997 0.319997 0.319997
0.197498 0.197498 0.197498
0.223743 0.223743 0.223743
0.249989 0.249989 0.249989
0.276234 0.276234 0.276234
0.302495 0.302495 0.302495
0.32874 0.32874 0.32874
0.354986 0.354986 0.354986
0.381247 0.381247 0.381247
0.407492 0.407492 0.407492
0.284993 0.284993 0.284993
0.311238 0.311238 0.311238
0.337484 0.337484 0.337484
0.363745 0.363745 0.363745
0.38999 0.38999 0.38999
0.416236 0.416236 0.416236
0.442496 0.442496 0.442496
0.468742 0.468742 0.468742
0.494987 0.494987 0.494987
0.372488 0.372488 0.372488
0.398733 0.398733 0.398733
0.424994 0.424994 0.424994
0.45124 0.45124 0.45124
0.477485 0.477485 0.477485
0.503746 0.503746 0.503746
0.529992 0.529992 0.529992
0.556237 0.556237 0.556237
0.582498 0.582498 0.582498
0.459998 0.459998 0.459998
0.486244 0.486244 0.486244
0.512489 0.512489 0.512489
0.53875 0.53875 0.53875
0.564996 0.564996 0.564996
0.591241 0.591241 0.591241
0.617487 0.617487 0.617487
0.643748 0.643748 0.643748
0.669993 0.669993 0.669993
0.547494 0.547494 0.547494
0.573739 0.573739 0.573739
0.6 0.6 0.6
0.626245 0.626245 0.626245
0.652491 0.652491 0.652491
0.678752 0.678752 0.678752
0.704997 0.704997 0.704997
0.731243 0.731243 0.731243
0.757504 0.757504 0.757504
0.635004 0.635004 0.635004
0.66125 0.66125 0.66125
0.687495 0.687495 0.687495
0.713741 0.713741 0.713741
0.740001 0.740001 0.740001
0.766247 0.766247 0.766247
0.792493 0.792493 0.792493
0.818753 0.818753 0.818753
0.844999 0.844999 0.844999
0.722499 0.722499 0.722499
0.748745 0.748745 0.748745
0.77499 0.77499 0.77499
0.801251 0.801251 0.801251
0.827497 0.827497 0.827497
0.853742 0.853742 0.853742
0.880003 0.880003 0.880003
0.906249 0.906249 0.906249
0.932494 0.932494 0.932494
0.033753 0.033753 0.033753
0.0599985 0.0599985 0.0599985
0.086244 0.086244 0.086244
0.112505 0.112505 0.112505
0.13875 0.13875 0.13875
0.164996 0.164996 0.164996
0.191241 0.191241 0.191241
0.217502 0.217502 0.217502
0.243748 0.243748 0.243748
0.121233 0.121233 0.121233
0.147494 0.147494 0.147494
0.173739 0.173739 0.173739
0.199985 0.199985 0.199985
0.226246 0.226246 0.226246
0.252491 0.252491 0.252491
0.278737 0.278737 0.278737
0.304982 0.304982 0.304982
0.331243 0.331243 0.331243
0.208743 0.208743 0.208743
0.234989 0.234989 0.234989
0.261234 0.261234 0.261234
0.287495 0.287495 0.287495
0.313741 0.313741 0.313741
0.339986 0.339986 0.339986
0.366247 0.366247 0.366247
0.392493 0.392493 0.392493
0.418738 0.418738 0.418738
0.296239 0.296239 0.296239
0.322484 0.322484 0.322484
0.348745 0.348745 0.348745
0.37499 0.37499 0.37499
0.401236 0.401236 0.401236
0.427497 0.427497 0.427497
0.453742 0.453742 0.453742
0.479988 0.479988 0.479988
0.506249 0.506249 0.506249
0.383749 0.383749 0.383749
0.409995 0.409995 0.409995
0.43624 0.43624 0.43624
0.462486 0.462486 0.462486
0.488746 0.488746 0.488746
0.514992 0.514992 0.514992
0.541238 0.541238 0.541238
0.567498 0.567498 0.567498
0.593744 0.593744 0.593744
0.471244 0.471244 0.471244
0.49749 0.49749 0.49749
0.523735 0.523735 0.523735
0.549996 0.549996 0.549996
0.576242 0.576242 0.576242
0.602487 0.602487 0.602487
0.628748 0.628748 0.628748
0.654994 0.654994 0.654994
0.681239 0.681239 0.681239
0.55874 0.55874 0.55874
0.585 0.585 0.585
0.611246 0.611246 0.611246
0.637491 0.637491 0.637491
0.663752 0.663752 0.663752
0.689998 0.689998 0.689998
0.716243 0.716243 0.716243
0.742489 0.742489 0.742489
0.76875 0.76875 0.76875
0.64625 0.64625 0.64625
0.672496 0.672496 0.672496
0.698741 0.698741 0.698741
0.725002 0.725002 0.725002
0.751247 0.751247 0.751247
0.777493 0.777493 0.777493
0.803754 0.803754 0.803754
0.829999 0.829999 0.829999
0.856245 0.856245 0.856245
0.733745 0.733745 0.733745
0.759991 0.759991 0.759991
0.786252 0.786252 0.786252
0.812497 0.812497 0.812497
0.838743 0.838743 0.838743
0.865003 0.865003 0.865003
0.891249 0.891249 0.891249
0.917494 0.917494 0.917494
0.943755 0.943755 0.943755
0.0449989 0.0449989 0.0449989
0.0712444 0.0712444 0.0712444
0.0974899 0.0974899 0.0974899
0.123751 0.123751 0.123751
0.149996 0.149996 0.149996
0.176242 0.176242 0.176242
0.202502 0.202502 0.202502
0.228748 0.228748 0.228748
0.254994 0.254994 0.254994
0.132494 0.132494 0.132494
0.15874 0.15874 0.15874
0.184985 0.184985 0.184985
0.211231 0.211231 0.211231
0.237491 0.237491 0.237491
0.263737 0.263737 0.263737
0.289982 0.289982 0.289982
0.316243 0.316243 0.316243
0.342489 0.342489 0.342489
0.219989 0.219989 0.219989
0.246235 0.246235 0.246235
0.272496 0.272496 0.272496
0.298741 0.298741 0.298741
0.324987 0.324987 0.324987
0.351247 0.351247 0.351247
0.377493 0.377493 0.377493
0.403738 0.403738 0.403738
0.429984 0.429984 0.429984
0.3075 0.3075 0.3075
0.333745 0.333745 0.333745
0.359991 0.359991 0.359991
0.386236 0.386236 0.386236
0.412497 0.412497 0.412497
0.438743 0.438743 0.438743
0.464988 0.464988 0.464988
0.491249 0.491249 0.491249
0.517494 0.517494 0.517494
0.394995 0.394995 0.394995
0.421241 0.421241 0.421241
0.447486 0.447486 0.447486
0.473747 0.473747 0.473747
0.499992 0.499992 0.499992
0.526238 0.526238 0.526238
0.552499 0.552499 0.552499
0.578744 0.578744 0.578744
0.60499 0.60499 0.60499
0.48249 0.48249 0.48249
0.508736 0.508736 0.508736
0.534997 0.534997 0.534997
0.561242 0.561242 0.561242
0.587488 0.587488 0.587488
0.613748 0.613748 0.613748
0.639994 0.639994 0.639994
0.666239 0.666239 0.666239
0.6925 0.6925 0.6925
0.570001 0.570001 0.570001
0.596246 0.596246 0.596246
0.622492 0.622492 0.622492
0.648737 0.648737 0.648737
0.674998 0.674998 0.674998
0.701244 0.701244 0.701244
0.727489 0.727489 0.727489
0.75375 0.75375 0.75375
0.779995 0.779995 0.779995
0.657496 0.657496 0.657496
0.683742 0.683742 0.683742
0.710002 0.710002 0.710002
0.736248 0.736248 0.736248
0.762493 0.762493 0.762493
0.788754 0.788754 0.788754
0.815 0.815 0.815
0.841245 0.841245 0.841245
0.867491 0.867491 0.867491
0.745007 0.745007 0.745007
0.771252 0.771252 0.771252
0.797498 0.797498 0.797498
0.823743 0.823743 0.823743
0.850004 0.850004 0.850004
0.876249 0.876249 0.876249
0.902495 0.902495 0.902495
0.928756 0.928756 0.928756
0.955001 0.955001 0.955001
0.0562448 0.0562448 0.0562448
0.0824903 0.0824903 0.0824903
0.108751 0.108751 0.108751
0.134997 0.134997 0.134997
0.161242 0.161242 0.161242
0.187503 0.187503 0.187503
0.213748 0.213748 0.213748
0.239994 0.239994 0.239994
0.266255 0.266255 0.266255
0.14374 0.14374 0.14374
0.169986 0.169986 0.169986
0.196231 0.196231 0.196231
0.222492 0.222492 0.222492
0.248737 0.248737 0.248737
0.274983 0.274983 0.274983
0.301244 0.301244 0.301244
0.327489 0.327489 0.327489
0.353735 0.353735 0.353735
0.231235 0.231235 0.231235
0.257496 0.257496 0.257496
0.283742 0.283742 0.283742
0.309987 0.309987 0.309987
0.336233 0.336233 0.336233
0.362493 0.362493 0.362493
0.388739 0.388739 0.388739
0.414984 0.414984 0.414984
0.441245 0.441245 0.441245
0.318746 0.318746 0.318746
0.344991 0.344991 0.344991
0.371237 0.371237 0.371237
0.397498 0.397498 0.397498
0.423743 0.423743 0.423743
0.449989 0.449989 0.449989
0.476249 0.476249 0.476249
0.502495 0.502495 0.502495
0.52874 0.52874 0.52874
0.406241 0.406241 0.406241
0.432486 0.432486 0.432486
0.458747 0.458747 0.458747
0.484993 0.484993 0.484993
0.511238 0.511238 0.511238
0.537499 0.537499 0.537499
0.563745 0.563745 0.563745
0.58999 0.58999 0.58999
0.616251 0.616251 0.616251
0.493751 0.493751 0.493751
0.519997 0.519997 0.519997
0.546242 0.546242 0.546242
0.572488 0.572488 0.572488
0.598749 0.598749 0.598749
0.624994 0.624994 0.624994
0.65124 0.65124 0.65124
0.677501 0.677501 0.677501
0.703746 0.703746 0.703746
0.581247 0.581247 0.581247
0.607492 0.607492 0.607492
0.633738 0.633738 0.633738
0.659998 0.659998 0.659998
0.686244 0.686244 0.686244
0.712489 0.712489 0.712489
0.73875 0.73875 0.73875
0.764996 0.764996 0.764996
0.791241 0.791241 0.791241
0.668742 0.668742 0.668742
0.695003 0.695003 0.695003
0.721248 0.721248 0.721248
0.747494 0.747494 0.747494
0.773739 0.773739 0.773739
0.8 0.8 0.8
0.826246 0.826246 0.826246
0.852491 0.852491 0.852491
0.878752 0.878752 0.878752
0.756252 0.756252 0.756252
0.782498 0.782498 0.782498
0.808743 0.808743 0.808743
0.835004 0.835004 0.835004
0.86125 0.86125 0.86125
0.887495 0.887495 0.887495
0.913756 0.913756 0.913756
0.940002 0.940002 0.940002
0.966247 0.966247 0.966247
0.0675059 0.0675059 0.0675059
0.0937514 0.0937514 0.0937514
0.119997 0.119997 0.119997
0.146242 0.146242 0.146242
0.172503 0.172503 0.172503
0.198749 0.198749 0.198749
0.224994 0.224994 0.224994
0.251255 0.251255 0.251255
0.277501 0.277501 0.277501
0.154986 0.154986 0.154986
0.181231 0.181231 0.181231
0.207492 0.207492 0.207492
0.233738 0.233738 0.233738
0.259983 0.259983 0.259983
0.286244 0.286244 0.286244
0.31249 0.31249 0.31249
0.338735 0.338735 0.338735
0.364996 0.364996 0.364996
0.242496 0.242496 0.242496
0.268742 0.268742 0.268742
0.294987 0.294987 0.294987
0.321233 0.321233 0.321233
0.347494 0.347494 0.347494
0.373739 0.373739 0.373739
0.399985 0.399985 0.399985
0.426246 0.426246 0.426246
0.452491 0.452491 0.452491
0.329992 0.329992 0.329992
0.356237 0.356237 0.356237
0.382498 0.382498 0.382498
0.408743 0.408743 0.408743
0.434989 0.434989 0.434989
0.461234 0.461234 0.461234
0.487495 0.487495 0.487495
0.513741 0.513741 0.513741
0.539986 0.539986 0.539986
0.417487 0.417487 0.417487
0.443748 0.443748 0.443748
0.469993 0.469993 0.469993
0.496239 0.496239 0.496239
0.522499 0.522499 0.522499
0.548745 0.548745 0.548745
0.57499 0.57499 0.57499
0.601251 0.601251 0.601251
0.627497 0.627497 0.627497
0.504997 0.504997 0.504997
0.531243 0.531243 0.531243
0.557488 0.557488 0.557488
0.583749 0.583749 0.583749
0.609995 0.609995 0.609995
0.63624 0.63624 0.63624
0.662501 0.662501 0.662501
0.688746 0.688746 0.688746
0.714992 0.714992 0.714992
0.592493 0.592493 0.592493
0.618738 0.618738 0.618738
0.644999 0.644999 0.644999
0.671244 0.671244 0.671244
0.69749 0.69749 0.69749
0.723751 0.723751 0.723751
0.749996 0.749996 0.749996
0.776242 0.776242 0.776242
0.802502 0.802502 0.802502
0.680003 0.680003 0.680003
0.706249 0.706249 0.706249
0.732494 0.732494 0.732494
0.75874 0.75874 0.75874
0.785 0.785 0.785
0.811246 0.811246 0.811246
0.837491 0.837491 0.837491
0.863752 0.863752 0.863752
0.889998 0.889998 0.889998
0.767498 0.767498 0.767498
0.793744 0.793744 0.793744
0.820005 0.820005 0.820005
0.84625 0.84625 0.84625
0.872496 0.872496 0.872496
0.898741 0.898741 0.898741
0.925002 0.925002 0.925002
0.951247 0.951247 0.951247
0.977493 0.977493 0.977493
0.0787518 0.0787518 0.0787518
0.104997 0.104997 0.104997
0.131243 0.131243 0.131243
0.157504 0.157504 0.157504
0.183749 0.183749 0.183749
0.209995 0.209995 0.209995
0.236255 0.236255 0.236255
0.262501 0.262501 0.262501
0.288746 0.288746 0.288746
0.166247 0.166247 0.166247
0.192493 0.192493 0.192493
0.218738 0.218738 0.218738
0.244984 0.244984 0.244984
0.271244 0.271244 0.271244
0.29749 0.29749 0.29749
0.323735 0.323735 0.323735
0.349996 0.349996 0.349996
0.376242 0.376242 0.376242
0.253742 0.253742 0.253742
0.279988 0.279988 0.279988
0.306233 0.306233 0.306233
0.332494 0.332494 0.332494
0.35874 0.35874 0.35874
0.384985 0.384985 0.384985
0.411246 0.411246 0.411246
0.437491 0.437491 0.437491
0.463737 0.463737 0.463737
0.341238 0.341238 0.341238
0.367483 0.367483 0.367483
0.393744 0.393744 0.393744
0.419989 0.419989 0.419989
0.446235 0.446235 0.446235
0.472496 0.472496 0.472496
0.498741 0.498741 0.498741
0.524987 0.524987 0.524987
0.551247 0.551247 0.551247
0.428748 0.428748 0.428748
0.454994 0.454994 0.454994
0.481239 0.481239 0.481239
0.5075 0.5075 0.5075
0.533745 0.533745 0.533745
0.559991 0.559991 0.559991
0.586236 0.586236 0.586236
0.612497 0.612497 0.612497
0.638743 0.638743 0.638743
0.516243 0.516243 0.516243
0.542489 0.542489 0.542489
0.56875 0.56875 0.56875
0.594995 0.594995 0.594995
0.621241 0.621241 0.621241
0.647501 0.647501 0.647501
0.673747 0.673747 0.673747
0.699992 0.699992 0.699992
0.726253 0.726253 0.726253
0.603754 0.603754 0.603754
0.629999 0.629999 0.629999
0.656245 0.656245 0.656245
0.68249 0.68249 0.68249
0.708751 0.708751 0.708751
0.734997 0.734997 0.734997
0.761242 0.761242 0.761242
0.787503 0.787503 0.787503
0.813748 0.813748 0.813748
0.691249 0.691249 0.691249
0.717494 0.717494 0.717494
0.74374 0.74374 0.74374
0.770001 0.770001 0.770001
0.796246 0.796246 0.796246
0.822492 0.822492 0.822492
0.848753 0.848753 0.848753
0.874998 0.874998 0.874998
0.901244 0.901244 0.901244
0.778744 0.778744 0.778744
0.80499 0.80499 0.80499
0.83125 0.83125 0.83125
0.857496 0.857496 0.857496
0.883741 0.883741 0.883741
0.910002 0.910002 0.910002
0.936248 0.936248 0.936248
0.962493 0.962493 0.962493
0.988754 0.988754 0.988754
0.0899977 0.0899977 0.0899977
0.116243 0.116243 0.116243
0.142504 0.142504 0.142504
0.16875 0.16875 0.16875
0.194995 0.194995 0.194995
0.221256 0.221256 0.221256
0.247501 0.247501 0.247501
0.273747 0.273747 0.273747
0.300008 0.300008 0.300008
0.177493 0.177493 0.177493
0.203738 0.203738 0.203738
0.229984 0.229984 0.229984
0.256245 0.256245 0.256245
0.28249 0.28249 0.28249
0.308736 0.308736 0.308736
0.334997 0.334997 0.334997
0.361242 0.361242 0.361242
0.387488 0.387488 0.387488
0.264988 0.264988 0.264988
0.291234 0.291234 0.291234
0.317494 0.317494 0.317494
0.34374 0.34374 0.34374
0.369985 0.369985 0.369985
0.396246 0.396246 0.396246
0.422492 0.422492 0.422492
0.448737 0.448737 0.448737
0.474998 0.474998 0.474998
0.352499 0.352499 0.352499
0.378744 0.378744 0.378744
0.40499 0.40499 0.40499
0.431235 0.431235 0.431235
0.457496 0.457496 0.457496
0.483742 0.483742 0.483742
0.509987 0.509987 0.509987
0.536248 0.536248 0.536248
0.562493 0.562493 0.562493
0.439994 0.439994 0.439994
0.466239 0.466239 0.466239
0.492485 0.492485 0.492485
0.518746 0.518746 0.518746
0.544991 0.544991 0.544991
0.571237 0.571237 0.571237
0.597498 0.597498 0.597498
0.623743 0.623743 0.623743
0.649989 0.649989 0.649989
0.527489 0.527489 0.527489
0.55375 0.55375 0.55375
0.579995 0.579995 0.579995
0.606241 0.606241 0.606241
0.632502 0.632502 0.632502
0.658747 0.658747 0.658747
0.684993 0.684993 0.684993
0.711238 0.711238 0.711238
0.737499 0.737499 0.737499
0.615 0.615 0.615
0.641245 0.641245 0.641245
0.667491 0.667491 0.667491
0.693751 0.693751 0.693751
0.719997 0.719997 0.719997
0.746242 0.746242 0.746242
0.772503 0.772503 0.772503
0.798749 0.798749 0.798749
0.824994 0.824994 0.824994
0.702495 0.702495 0.702495
0.72874 0.72874 0.72874
0.755001 0.755001 0.755001
0.781247 0.781247 0.781247
0.807492 0.807492 0.807492
0.833753 0.833753 0.833753
0.859998 0.859998 0.859998
0.886244 0.886244 0.886244
0.912505 0.912505 0.912505
0.790005 0.790005 0.790005
0.816251 0.816251 0.816251
0.842496 0.842496 0.842496
0.868742 0.868742 0.868742
0.895003 0.895003 0.895003
0.921248 0.921248 0.921248
0.947494 0.947494 0.947494
0.973754 0.973754 0.973754
1 1 1
