static/files/3DLUTP/unsaturated.cube
TITLE "Generated by Resolve"
LUT_3D_SIZE 5
0 0 0
0.052491 0.052491 0.052491
0.104997 0.104997 0.104997
0.157504 0.157504 0.157504
0.209995 0.209995 0.209995
0.17499 0.17499 0.17499
0.227497 0.227497 0.227497
0.279988 0.279988 0.279988
0.332494 0.332494 0.332494
0.384985 0.384985 0.384985
0.349996 0.349996 0.349996
0.402487 0.402487 0.402487
0.454994 0.454994 0.454994
0.5075 0.5075 0.5075
0.559991 0.559991 0.559991
0.525002 0.525002 0.525002
0.577493 0.577493 0.577493
0.629999 0.629999 0.629999
0.68249 0.68249 0.68249
0.734997 0.734997 0.734997
0.700008 0.700008 0.700008
0.752499 0.752499 0.752499
0.805005 0.805005 0.805005
0.857496 0.857496 0.857496
0.910002 0.910002 0.910002
0.0224918 0.0224918 0.0224918
0.0749981 0.0749981 0.0749981
0.127504 0.127504 0.127504
0.179995 0.179995 0.179995
0.232502 0.232502 0.232502
0.197498 0.197498 0.197498
0.249989 0.249989 0.249989
0.302495 0.302495 0.302495
0.354986 0.354986 0.354986
0.407492 0.407492 0.407492
0.372488 0.372488 0.372488
0.424994 0.424994 0.424994
0.477485 0.477485 0.477485
0.529992 0.529992 0.529992
0.582498 0.582498 0.582498
0.547494 0.547494 0.547494
0.6 0.6 0.6
0.652491 0.652491 0.652491
0.704997 0.704997 0.704997
0.757504 0.757504 0.757504
0.722499 0.722499 0.722499
0.77499 0.77499 0.77499
0.827497 0.827497 0.827497
0.880003 0.880003 0.880003
0.932494 0.932494 0.932494
0.0449989 0.0449989 0.0449989
0.0974899 0.0974899 0.0974899
0.149996 0.149996 0.149996
0.202502 0.202502 0.202502
0.254994 0.254994 0.254994
0.219989 0.219989 0.219989
0.272496 0.272496 0.272496
0.324987 0.324987 0.324987
0.377493 0.377493 0.377493
0.429984 0.429984 0.429984
0.394995 0.394995 0.394995
0.447486 0.447486 0.447486
0.499992 0.499992 0.499992
0.552499 0.552499 0.552499
0.60499 0.60499 0.60499
0.570001 0.570001 0.570001
0.622492 0.622492 0.622492
0.674998 0.674998 0.674998
0.727489 0.727489 0.727489
0.779995 0.779995 0.779995
0.745007 0.745007 0.745007
0.797498 0.797498 0.797498
0.850004 0.850004 0.850004
0.902495 0.902495 0.902495
0.955001 0.955001 0.955001
0.0675059 0.0675059 0.0675059
0.119997 0.119997 0.119997
0.172503 0.172503 0.172503
0.224994 0.224994 0.224994
0.277501 0.277501 0.277501
0.242496 0.242496 0.242496
0.294987 0.294987 0.294987
0.347494 0.347494 0.347494
0.399985 0.399985 0.399985
0.452491 0.452491 0.452491
0.417487 0.417487 0.417487
0.469993 0.469993 0.469993
0.522499 0.522499 0.522499
0.57499 0.57499 0.57499
0.627497 0.627497 0.627497
0.592493 0.592493 0.592493
0.644999 0.644999 0.644999
0.69749 0.69749 0.69749
0.749996 0.749996 0.749996
0.802502 0.802502 0.802502
0.767498 0.767498 0.767498
0.820005 0.820005 0.820005
0.872496 0.872496 0.872496
0.925002 0.925002 0.925002
0.977493 0.977493 0.977493
0.0899977 0.0899977 0.0899977
0.142504 0.142504 0.142504
0.194995 0.194995 0.194995
0.247501 0.247501 0.247501
0.300008 0.300008 0.300008
0.264988 0.264988 0.264988
0.317494 0.317494 0.317494
0.369985 0.369985 0.369985
0.422492 0.422492 0.422492
0.474998 0.474998 0.474998
0.439994 0.439994 0.439994
0.492485 0.492485 0.492485
0.544991 0.544991 0.544991
0.597498 0.597498 0.597498
0.649989 0.649989 0.649989
0.615 0.615 0.615
0.667491 0.667491 0.667491
0.719997 0.719997 0.719997
0.772503 0.772503 0.772503
0.824994 0.824994 0.824994
0.790005 0.790005 0.790005
0.842496 0.842496 0.842496
0.895003 0.895003 0.895003
0.947494 0.947494 0.947494
1 1 1
