static/files/3DLUTP/unsaturated.cube
TITLE "Generated by Resolve"
LUT_3D_SIZE 33
0 0 0
0.00656138 0.00656138 0.00656138
0.0131228 0.0131228 0.0131228
0.0196841 0.0196841 0.0196841
0.0262455 0.0262455 0.0262455
0.0328069 0.0328069 0.0328069
0.0393683 0.0393683 0.0393683
0.0459297 0.0459297 0.0459297
0.052491 0.052491 0.052491
0.0590677 0.0590677 0.0590677
0.0656291 0.0656291 0.0656291
0.0721904 0.0721904 0.0721904
0.0787518 0.0787518 0.0787518
0.0853132 0.0853132 0.0853132
0.0918746 0.0918746 0.0918746
0.098436 0.098436 0.098436
0.104997 0.104997 0.104997
0.111559 0.111559 0.111559
0.11812 0.11812 0.11812
0.124681 0.124681 0.124681
0.131243 0.131243 0.131243
0.137804 0.137804 0.137804
0.144381 0.144381 0.144381
0.150942 0.150942 0.150942
0.157504 0.157504 0.157504
0.164065 0.164065 0.164065
0.170626 0.170626 0.170626
0.177188 0.177188 0.177188
0.183749 0.183749 0.183749
0.190311 0.190311 0.190311
0.196872 0.196872 0.196872
0.203433 0.203433 0.203433
0.209995 0.209995 0.209995
0.0218662 0.0218662 0.0218662
0.0284276 0.0284276 0.0284276
0.0349889 0.0349889 0.0349889
0.0415503 0.0415503 0.0415503
0.0481117 0.0481117 0.0481117
0.0546731 0.0546731 0.0546731
0.0612345 0.0612345 0.0612345
0.0677958 0.0677958 0.0677958
0.0743572 0.0743572 0.0743572
0.0809186 0.0809186 0.0809186
0.08748 0.08748 0.08748
0.0940566 0.0940566 0.0940566
0.100618 0.100618 0.100618
0.107179 0.107179 0.107179
0.113741 0.113741 0.113741
0.120302 0.120302 0.120302
0.126864 0.126864 0.126864
0.133425 0.133425 0.133425
0.139986 0.139986 0.139986
0.146548 0.146548 0.146548
0.153109 0.153109 0.153109
0.15967 0.15967 0.15967
0.166232 0.166232 0.166232
0.172808 0.172808 0.172808
0.17937 0.17937 0.17937
0.185931 0.185931 0.185931
0.192493 0.192493 0.192493
0.199054 0.199054 0.199054
0.205615 0.205615 0.205615
0.212177 0.212177 0.212177
0.218738 0.218738 0.218738
0.225299 0.225299 0.225299
0.231861 0.231861 0.231861
0.0437476 0.0437476 0.0437476
0.0502937 0.0502937 0.0502937
0.0568551 0.0568551 0.0568551
0.0634318 0.0634318 0.0634318
0.0699931 0.0699931 0.0699931
0.0765545 0.0765545 0.0765545
0.0831159 0.0831159 0.0831159
0.0896773 0.0896773 0.0896773
0.0962387 0.0962387 0.0962387
0.1028 0.1028 0.1028
0.109361 0.109361 0.109361
0.115923 0.115923 0.115923
0.122484 0.122484 0.122484
0.129046 0.129046 0.129046
0.135607 0.135607 0.135607
0.142168 0.142168 0.142168
0.148745 0.148745 0.148745
0.155306 0.155306 0.155306
0.161868 0.161868 0.161868
0.168429 0.168429 0.168429
0.17499 0.17499 0.17499
0.181552 0.181552 0.181552
0.188113 0.188113 0.188113
0.194675 0.194675 0.194675
0.201236 0.201236 0.201236
0.207797 0.207797 0.207797
0.214359 0.214359 0.214359
0.22092 0.22092 0.22092
0.227497 0.227497 0.227497
0.234058 0.234058 0.234058
0.24062 0.24062 0.24062
0.247181 0.247181 0.247181
0.253742 0.253742 0.253742
0.0656138 0.0656138 0.0656138
0.0721752 0.0721752 0.0721752
0.0787366 0.0787366 0.0787366
0.0852979 0.0852979 0.0852979
0.0918593 0.0918593 0.0918593
0.0984207 0.0984207 0.0984207
0.104982 0.104982 0.104982
0.111543 0.111543 0.111543
0.11812 0.11812 0.11812
0.124681 0.124681 0.124681
0.131243 0.131243 0.131243
0.137804 0.137804 0.137804
0.144366 0.144366 0.144366
0.150927 0.150927 0.150927
0.157488 0.157488 0.157488
0.16405 0.16405 0.16405
0.170611 0.170611 0.170611
0.177172 0.177172 0.177172
0.183734 0.183734 0.183734
0.190295 0.190295 0.190295
0.196857 0.196857 0.196857
0.203433 0.203433 0.203433
0.209995 0.209995 0.209995
0.216556 0.216556 0.216556
0.223117 0.223117 0.223117
0.229679 0.229679 0.229679
0.23624 0.23624 0.23624
0.242802 0.242802 0.242802
0.249363 0.249363 0.249363
0.255924 0.255924 0.255924
0.262486 0.262486 0.262486
0.269047 0.269047 0.269047
0.275608 0.275608 0.275608
0.0874952 0.0874952 0.0874952
0.0940566 0.0940566 0.0940566
0.100618 0.100618 0.100618
0.107179 0.107179 0.107179
0.113741 0.113741 0.113741
0.120302 0.120302 0.120302
0.126864 0.126864 0.126864
0.133425 0.133425 0.133425
0.139986 0.139986 0.139986
0.146548 0.146548 0.146548
0.153109 0.153109 0.153109
0.15967 0.15967 0.15967
0.166232 0.166232 0.166232
0.172808 0.172808 0.172808
0.17937 0.17937 0.17937
0.185931 0.185931 0.185931
0.192493 0.192493 0.192493
0.199054 0.199054 0.199054
0.205615 0.205615 0.205615
0.212177 0.212177 0.212177
0.218738 0.218738 0.218738
0.225299 0.225299 0.225299
0.231861 0.231861 0.231861
0.238422 0.238422 0.238422
0.244984 0.244984 0.244984
0.251545 0.251545 0.251545
0.258122 0.258122 0.258122
0.264683 0.264683 0.264683
0.271244 0.271244 0.271244
0.277806 0.277806 0.277806
0.284367 0.284367 0.284367
0.290929 0.290929 0.290929
0.29749 0.29749 0.29749
0.109361 0.109361 0.109361
0.115923 0.115923 0.115923
0.122484 0.122484 0.122484
0.129046 0.129046 0.129046
0.135607 0.135607 0.135607
0.142168 0.142168 0.142168
0.148745 0.148745 0.148745
0.155306 0.155306 0.155306
0.161868 0.161868 0.161868
0.168429 0.168429 0.168429
0.17499 0.17499 0.17499
0.181552 0.181552 0.181552
0.188113 0.188113 0.188113
0.194675 0.194675 0.194675
0.201236 0.201236 0.201236
0.207797 0.207797 0.207797
0.214359 0.214359 0.214359
0.22092 0.22092 0.22092
0.227497 0.227497 0.227497
0.234058 0.234058 0.234058
0.24062 0.24062 0.24062
0.247181 0.247181 0.247181
0.253742 0.253742 0.253742
0.260304 0.260304 0.260304
0.266865 0.266865 0.266865
0.273426 0.273426 0.273426
0.279988 0.279988 0.279988
0.286549 0.286549 0.286549
0.293111 0.293111 0.293111
0.299672 0.299672 0.299672
0.306233 0.306233 0.306233
0.31281 0.31281 0.31281
0.319371 0.319371 0.319371
0.131243 0.131243 0.131243
0.137804 0.137804 0.137804
0.144366 0.144366 0.144366
0.150927 0.150927 0.150927
0.157488 0.157488 0.157488
0.16405 0.16405 0.16405
0.170611 0.170611 0.170611
0.177172 0.177172 0.177172
0.183734 0.183734 0.183734
0.190295 0.190295 0.190295
0.196857 0.196857 0.196857
0.203433 0.203433 0.203433
0.209995 0.209995 0.209995
0.216556 0.216556 0.216556
0.223117 0.223117 0.223117
0.229679 0.229679 0.229679
0.23624 0.23624 0.23624
0.242802 0.242802 0.242802
0.249363 0.249363 0.249363
0.255924 0.255924 0.255924
0.262486 0.262486 0.262486
0.269047 0.269047 0.269047
0.275608 0.275608 0.275608
0.282185 0.282185 0.282185
0.288746 0.288746 0.288746
0.295308 0.295308 0.295308
0.301869 0.301869 0.301869
0.308431 0.308431 0.308431
0.314992 0.314992 0.314992
0.321553 0.321553 0.321553
0.328115 0.328115 0.328115
0.334676 0.334676 0.334676
0.341238 0.341238 0.341238
0.153124 0.153124 0.153124
0.15967 0.15967 0.15967
0.166232 0.166232 0.166232
0.172808 0.172808 0.172808
0.17937 0.17937 0.17937
0.185931 0.185931 0.185931
0.192493 0.192493 0.192493
0.199054 0.199054 0.199054
0.205615 0.205615 0.205615
0.212177 0.212177 0.212177
0.218738 0.218738 0.218738
0.225299 0.225299 0.225299
0.231861 0.231861 0.231861
0.238422 0.238422 0.238422
0.244984 0.244984 0.244984
0.251545 0.251545 0.251545
0.258122 0.258122 0.258122
0.264683 0.264683 0.264683
0.271244 0.271244 0.271244
0.277806 0.277806 0.277806
0.284367 0.284367 0.284367
0.290929 0.290929 0.290929
0.29749 0.29749 0.29749
0.304051 0.304051 0.304051
0.310613 0.310613 0.310613
0.317174 0.317174 0.317174
0.323735 0.323735 0.323735
0.330297 0.330297 0.330297
0.336873 0.336873 0.336873
0.343435 0.343435 0.343435
0.349996 0.349996 0.349996
0.356558 0.356558 0.356558
0.363119 0.363119 0.363119
0.17499 0.17499 0.17499
0.181552 0.181552 0.181552
0.188113 0.188113 0.188113
0.194675 0.194675 0.194675
0.201236 0.201236 0.201236
0.207797 0.207797 0.207797
0.214359 0.214359 0.214359
0.22092 0.22092 0.22092
0.227497 0.227497 0.227497
0.234058 0.234058 0.234058
0.24062 0.24062 0.24062
0.247181 0.247181 0.247181
0.253742 0.253742 0.253742
0.260304 0.260304 0.260304
0.266865 0.266865 0.266865
0.273426 0.273426 0.273426
0.279988 0.279988 0.279988
0.286549 0.286549 0.286549
0.293111 0.293111 0.293111
0.299672 0.299672 0.299672
0.306233 0.306233 0.306233
0.31281 0.31281 0.31281
0.319371 0.319371 0.319371
0.325933 0.325933 0.325933
0.332494 0.332494 0.332494
0.339055 0.339055 0.339055
0.345617 0.345617 0.345617
0.352178 0.352178 0.352178
0.35874 0.35874 0.35874
0.365301 0.365301 0.365301
0.371862 0.371862 0.371862
0.378424 0.378424 0.378424
0.384985 0.384985 0.384985
0.196872 0.196872 0.196872
0.203433 0.203433 0.203433
0.209995 0.209995 0.209995
0.216556 0.216556 0.216556
0.223117 0.223117 0.223117
0.229679 0.229679 0.229679
0.23624 0.23624 0.23624
0.242802 0.242802 0.242802
0.249363 0.249363 0.249363
0.255924 0.255924 0.255924
0.262486 0.262486 0.262486
0.269047 0.269047 0.269047
0.275608 0.275608 0.275608
0.282185 0.282185 0.282185
0.288746 0.288746 0.288746
0.295308 0.295308 0.295308
0.301869 0.301869 0.301869
0.308431 0.308431 0.308431
0.314992 0.314992 0.314992
0.321553 0.321553 0.321553
0.328115 0.328115 0.328115
0.334676 0.334676 0.334676
0.341238 0.341238 0.341238
0.347799 0.347799 0.347799
0.35436 0.35436 0.35436
0.360922 0.360922 0.360922
0.367498 0.367498 0.367498
0.37406 0.37406 0.37406
0.380621 0.380621 0.380621
0.387182 0.387182 0.387182
0.393744 0.393744 0.393744
0.400305 0.400305 0.400305
0.406867 0.406867 0.406867
0.218738 0.218738 0.218738
0.225299 0.225299 0.225299
0.231861 0.231861 0.231861
0.238422 0.238422 0.238422
0.244984 0.244984 0.244984
0.251545 0.251545 0.251545
0.258122 0.258122 0.258122
0.264683 0.264683 0.264683
0.271244 0.271244 0.271244
0.277806 0.277806 0.277806
0.284367 0.284367 0.284367
0.290929 0.290929 0.290929
0.29749 0.29749 0.29749
0.304051 0.304051 0.304051
0.310613 0.310613 0.310613
0.317174 0.317174 0.317174
0.323735 0.323735 0.323735
0.330297 0.330297 0.330297
0.336873 0.336873 0.336873
0.343435 0.343435 0.343435
0.349996 0.349996 0.349996
0.356558 0.356558 0.356558
0.363119 0.363119 0.363119
0.36968 0.36968 0.36968
0.376242 0.376242 0.376242
0.382803 0.382803 0.382803
0.389364 0.389364 0.389364
0.395926 0.395926 0.395926
0.402487 0.402487 0.402487
0.409049 0.409049 0.409049
0.41561 0.41561 0.41561
0.422187 0.422187 0.422187
0.428748 0.428748 0.428748
0.24062 0.24062 0.24062
0.247181 0.247181 0.247181
0.253742 0.253742 0.253742
0.260304 0.260304 0.260304
0.266865 0.266865 0.266865
0.273426 0.273426 0.273426
0.279988 0.279988 0.279988
0.286549 0.286549 0.286549
0.293111 0.293111 0.293111
0.299672 0.299672 0.299672
0.306233 0.306233 0.306233
0.31281 0.31281 0.31281
0.319371 0.319371 0.319371
0.325933 0.325933 0.325933
0.332494 0.332494 0.332494
0.339055 0.339055 0.339055
0.345617 0.345617 0.345617
0.352178 0.352178 0.352178
0.35874 0.35874 0.35874
0.365301 0.365301 0.365301
0.371862 0.371862 0.371862
0.378424 0.378424 0.378424
0.384985 0.384985 0.384985
0.391562 0.391562 0.391562
0.398123 0.398123 0.398123
0.404685 0.404685 0.404685
0.411246 0.411246 0.411246
0.417807 0.417807 0.417807
0.424369 0.424369 0.424369
0.43093 0.43093 0.43093
0.437491 0.437491 0.437491
0.444053 0.444053 0.444053
0.450614 0.450614 0.450614
0.262501 0.262501 0.262501
0.269047 0.269047 0.269047
0.275608 0.275608 0.275608
0.282185 0.282185 0.282185
0.288746 0.288746 0.288746
0.295308 0.295308 0.295308
0.301869 0.301869 0.301869
0.308431 0.308431 0.308431
0.314992 0.314992 0.314992
0.321553 0.321553 0.321553
0.328115 0.328115 0.328115
0.334676 0.334676 0.334676
0.341238 0.341238 0.341238
0.347799 0.347799 0.347799
0.35436 0.35436 0.35436
0.360922 0.360922 0.360922
0.367498 0.367498 0.367498
0.37406 0.37406 0.37406
0.380621 0.380621 0.380621
0.387182 0.387182 0.387182
0.393744 0.393744 0.393744
0.400305 0.400305 0.400305
0.406867 0.406867 0.406867
0.413428 0.413428 0.413428
0.419989 0.419989 0.419989
0.426551 0.426551 0.426551
0.433112 0.433112 0.433112
0.439673 0.439673 0.439673
0.44625 0.44625 0.44625
0.452811 0.452811 0.452811
0.459373 0.459373 0.459373
0.465934 0.465934 0.465934
0.472496 0.472496 0.472496
0.284367 0.284367 0.284367
0.290929 0.290929 0.290929
0.29749 0.29749 0.29749
0.304051 0.304051 0.304051
0.310613 0.310613 0.310613
0.317174 0.317174 0.317174
0.323735 0.323735 0.323735
0.330297 0.330297 0.330297
0.336873 0.336873 0.336873
0.343435 0.343435 0.343435
0.349996 0.349996 0.349996
0.356558 0.356558 0.356558
0.363119 0.363119 0.363119
0.36968 0.36968 0.36968
0.376242 0.376242 0.376242
0.382803 0.382803 0.382803
0.389364 0.389364 0.389364
0.395926 0.395926 0.395926
0.402487 0.402487 0.402487
0.409049 0.409049 0.409049
0.41561 0.41561 0.41561
0.422187 0.422187 0.422187
0.428748 0.428748 0.428748
0.435309 0.435309 0.435309
0.441871 0.441871 0.441871
0.448432 0.448432 0.448432
0.454994 0.454994 0.454994
0.461555 0.461555 0.461555
0.468116 0.468116 0.468116
0.474678 0.474678 0.474678
0.481239 0.481239 0.481239
0.4878 0.4878 0.4878
0.494362 0.494362 0.494362
0.306249 0.306249 0.306249
0.31281 0.31281 0.31281
0.319371 0.319371 0.319371
0.325933 0.325933 0.325933
0.332494 0.332494 0.332494
0.339055 0.339055 0.339055
0.345617 0.345617 0.345617
0.352178 0.352178 0.352178
0.35874 0.35874 0.35874
0.365301 0.365301 0.365301
0.371862 0.371862 0.371862
0.378424 0.378424 0.378424
0.384985 0.384985 0.384985
0.391562 0.391562 0.391562
0.398123 0.398123 0.398123
0.404685 0.404685 0.404685
0.411246 0.411246 0.411246
0.417807 0.417807 0.417807
0.424369 0.424369 0.424369
0.43093 0.43093 0.43093
0.437491 0.437491 0.437491
0.444053 0.444053 0.444053
0.450614 0.450614 0.450614
0.457176 0.457176 0.457176
0.463737 0.463737 0.463737
0.470298 0.470298 0.470298
0.476875 0.476875 0.476875
0.483436 0.483436 0.483436
0.489998 0.489998 0.489998
0.496559 0.496559 0.496559
0.50312 0.50312 0.50312
0.509682 0.509682 0.509682
0.516243 0.516243 0.516243
0.328115 0.328115 0.328115
0.334676 0.334676 0.334676
0.341238 0.341238 0.341238
0.347799 0.347799 0.347799
0.35436 0.35436 0.35436
0.360922 0.360922 0.360922
0.367498 0.367498 0.367498
0.37406 0.37406 0.37406
0.380621 0.380621 0.380621
0.387182 0.387182 0.387182
0.393744 0.393744 0.393744
0.400305 0.400305 0.400305
0.406867 0.406867 0.406867
0.413428 0.413428 0.413428
0.419989 0.419989 0.419989
0.426551 0.426551 0.426551
0.433112 0.433112 0.433112
0.439673 0.439673 0.439673
0.44625 0.44625 0.44625
0.452811 0.452811 0.452811
0.459373 0.459373 0.459373
0.465934 0.465934 0.465934
0.472496 0.472496 0.472496
0.479057 0.479057 0.479057
0.485618 0.485618 0.485618
0.49218 0.49218 0.49218
0.498741 0.498741 0.498741
0.505302 0.505302 0.505302
0.511864 0.511864 0.511864
0.518425 0.518425 0.518425
0.524987 0.524987 0.524987
0.531563 0.531563 0.531563
0.538125 0.538125 0.538125
0.349996 0.349996 0.349996
0.356558 0.356558 0.356558
0.363119 0.363119 0.363119
0.36968 0.36968 0.36968
0.376242 0.376242 0.376242
0.382803 0.382803 0.382803
0.389364 0.389364 0.389364
0.395926 0.395926 0.395926
0.402487 0.402487 0.402487
0.409049 0.409049 0.409049
0.41561 0.41561 0.41561
0.422187 0.422187 0.422187
0.428748 0.428748 0.428748
0.435309 0.435309 0.435309
0.441871 0.441871 0.441871
0.448432 0.448432 0.448432
0.454994 0.454994 0.454994
0.461555 0.461555 0.461555
0.468116 0.468116 0.468116
0.474678 0.474678 0.474678
0.481239 0.481239 0.481239
0.4878 0.4878 0.4878
0.494362 0.494362 0.494362
0.500938 0.500938 0.500938
0.5075 0.5075 0.5075
0.514061 0.514061 0.514061
0.520623 0.520623 0.520623
0.527184 0.527184 0.527184
0.533745 0.533745 0.533745
0.540307 0.540307 0.540307
0.546868 0.546868 0.546868
0.553429 0.553429 0.553429
0.559991 0.559991 0.559991
0.371878 0.371878 0.371878
0.378424 0.378424 0.378424
0.384985 0.384985 0.384985
0.391562 0.391562 0.391562
0.398123 0.398123 0.398123
0.404685 0.404685 0.404685
0.411246 0.411246 0.411246
0.417807 0.417807 0.417807
0.424369 0.424369 0.424369
0.43093 0.43093 0.43093
0.437491 0.437491 0.437491
0.444053 0.444053 0.444053
0.450614 0.450614 0.450614
0.457176 0.457176 0.457176
0.463737 0.463737 0.463737
0.470298 0.470298 0.470298
0.476875 0.476875 0.476875
0.483436 0.483436 0.483436
0.489998 0.489998 0.489998
0.496559 0.496559 0.496559
0.50312 0.50312 0.50312
0.509682 0.509682 0.509682
0.516243 0.516243 0.516243
0.522805 0.522805 0.522805
0.529366 0.529366 0.529366
0.535927 0.535927 0.535927
0.542489 0.542489 0.542489
0.54905 0.54905 0.54905
0.555627 0.555627 0.555627
0.562188 0.562188 0.562188
0.56875 0.56875 0.56875
0.575311 0.575311 0.575311
0.581872 0.581872 0.581872
0.393744 0.393744 0.393744
0.400305 0.400305 0.400305
0.406867 0.406867 0.406867
0.413428 0.413428 0.413428
0.419989 0.419989 0.419989
0.426551 0.426551 0.426551
0.433112 0.433112 0.433112
0.439673 0.439673 0.439673
0.44625 0.44625 0.44625
0.452811 0.452811 0.452811
0.459373 0.459373 0.459373
0.465934 0.465934 0.465934
0.472496 0.472496 0.472496
0.479057 0.479057 0.479057
0.485618 0.485618 0.485618
0.49218 0.49218 0.49218
0.498741 0.498741 0.498741
0.505302 0.505302 0.505302
0.511864 0.511864 0.511864
0.518425 0.518425 0.518425
0.524987 0.524987 0.524987
0.531563 0.531563 0.531563
0.538125 0.538125 0.538125
0.544686 0.544686 0.544686
0.551247 0.551247 0.551247
0.557809 0.557809 0.557809
0.56437 0.56437 0.56437
0.570932 0.570932 0.570932
0.577493 0.577493 0.577493
0.584054 0.584054 0.584054
0.590616 0.590616 0.590616
0.597177 0.597177 0.597177
0.603738 0.603738 0.603738
0.415625 0.415625 0.415625
0.422187 0.422187 0.422187
0.428748 0.428748 0.428748
0.435309 0.435309 0.435309
0.441871 0.441871 0.441871
0.448432 0.448432 0.448432
0.454994 0.454994 0.454994
0.461555 0.461555 0.461555
0.468116 0.468116 0.468116
0.474678 0.474678 0.474678
0.481239 0.481239 0.481239
0.4878 0.4878 0.4878
0.494362 0.494362 0.494362
0.500938 0.500938 0.500938
0.5075 0.5075 0.5075
0.514061 0.514061 0.514061
0.520623 0.520623 0.520623
0.527184 0.527184 0.527184
0.533745 0.533745 0.533745
0.540307 0.540307 0.540307
0.546868 0.546868 0.546868
0.553429 0.553429 0.553429
0.559991 0.559991 0.559991
0.566552 0.566552 0.566552
0.573114 0.573114 0.573114
0.579675 0.579675 0.579675
0.586252 0.586252 0.586252
0.592813 0.592813 0.592813
0.599374 0.599374 0.599374
0.605936 0.605936 0.605936
0.612497 0.612497 0.612497
0.619058 0.619058 0.619058
0.62562 0.62562 0.62562
0.437491 0.437491 0.437491
0.444053 0.444053 0.444053
0.450614 0.450614 0.450614
0.457176 0.457176 0.457176
0.463737 0.463737 0.463737
0.470298 0.470298 0.470298
0.476875 0.476875 0.476875
0.483436 0.483436 0.483436
0.489998 0.489998 0.489998
0.496559 0.496559 0.496559
0.50312 0.50312 0.50312
0.509682 0.509682 0.509682
0.516243 0.516243 0.516243
0.522805 0.522805 0.522805
0.529366 0.529366 0.529366
0.535927 0.535927 0.535927
0.542489 0.542489 0.542489
0.54905 0.54905 0.54905
0.555627 0.555627 0.555627
0.562188 0.562188 0.562188
0.56875 0.56875 0.56875
0.575311 0.575311 0.575311
0.581872 0.581872 0.581872
0.588434 0.588434 0.588434
0.594995 0.594995 0.594995
0.601556 0.601556 0.601556
0.608118 0.608118 0.608118
0.614679 0.614679 0.614679
0.621241 0.621241 0.621241
0.627802 0.627802 0.627802
0.634363 0.634363 0.634363
0.64094 0.64094 0.64094
0.647501 0.647501 0.647501
0.459373 0.459373 0.459373
0.465934 0.465934 0.465934
0.472496 0.472496 0.472496
0.479057 0.479057 0.479057
0.485618 0.485618 0.485618
0.49218 0.49218 0.49218
0.498741 0.498741 0.498741
0.505302 0.505302 0.505302
0.511864 0.511864 0.511864
0.518425 0.518425 0.518425
0.524987 0.524987 0.524987
0.531563 0.531563 0.531563
0.538125 0.538125 0.538125
0.544686 0.544686 0.544686
0.551247 0.551247 0.551247
0.557809 0.557809 0.557809
0.56437 0.56437 0.56437
0.570932 0.570932 0.570932
0.577493 0.577493 0.577493
0.584054 0.584054 0.584054
0.590616 0.590616 0.590616
0.597177 0.597177 0.597177
0.603738 0.603738 0.603738
0.610315 0.610315 0.610315
0.616876 0.616876 0.616876
0.623438 0.623438 0.623438
0.629999 0.629999 0.629999
0.636561 0.636561 0.636561
0.643122 0.643122 0.643122
0.649683 0.649683 0.649683
0.656245 0.656245 0.656245
0.662806 0.662806 0.662806
0.669367 0.669367 0.669367
0.481254 0.481254 0.481254
0.4878 0.4878 0.4878
0.494362 0.494362 0.494362
0.500938 0.500938 0.500938
0.5075 0.5075 0.5075
0.514061 0.514061 0.514061
0.520623 0.520623 0.520623
0.527184 0.527184 0.527184
0.533745 0.533745 0.533745
0.540307 0.540307 0.540307
0.546868 0.546868 0.546868
0.553429 0.553429 0.553429
0.559991 0.559991 0.559991
0.566552 0.566552 0.566552
0.573114 0.573114 0.573114
0.579675 0.579675 0.579675
0.586252 0.586252 0.586252
0.592813 0.592813 0.592813
0.599374 0.599374 0.599374
0.605936 0.605936 0.605936
0.612497 0.612497 0.612497
0.619058 0.619058 0.619058
0.62562 0.62562 0.62562
0.632181 0.632181 0.632181
0.638743 0.638743 0.638743
0.645304 0.645304 0.645304
0.651865 0.651865 0.651865
0.658427 0.658427 0.658427
0.665003 0.665003 0.665003
0.671565 0.671565 0.671565
0.678126 0.678126 0.678126
0.684688 0.684688 0.684688
0.691249 0.691249 0.691249
0.50312 0.50312 0.50312
0.509682 0.509682 0.509682
0.516243 0.516243 0.516243
0.522805 0.522805 0.522805
0.529366 0.529366 0.529366
0.535927 0.535927 0.535927
0.542489 0.542489 0.542489
0.54905 0.54905 0.54905
0.555627 0.555627 0.555627
0.562188 0.562188 0.562188
0.56875 0.56875 0.56875
0.575311 0.575311 0.575311
0.581872 0.581872 0.581872
0.588434 0.588434 0.588434
0.594995 0.594995 0.594995
0.601556 0.601556 0.601556
0.608118 0.608118 0.608118
0.614679 0.614679 0.614679
0.621241 0.621241 0.621241
0.627802 0.627802 0.627802
0.634363 0.634363 0.634363
0.64094 0.64094 0.64094
0.647501 0.647501 0.647501
0.654063 0.654063 0.654063
0.660624 0.660624 0.660624
0.667185 0.667185 0.667185
0.673747 0.673747 0.673747
0.680308 0.680308 0.680308
0.68687 0.68687 0.68687
0.693431 0.693431 0.693431
0.699992 0.699992 0.699992
0.706554 0.706554 0.706554
0.713115 0.713115 0.713115
0.525002 0.525002 0.525002
0.531563 0.531563 0.531563
0.538125 0.538125 0.538125
0.544686 0.544686 0.544686
0.551247 0.551247 0.551247
0.557809 0.557809 0.557809
0.56437 0.56437 0.56437
0.570932 0.570932 0.570932
0.577493 0.577493 0.577493
0.584054 0.584054 0.584054
0.590616 0.590616 0.590616
0.597177 0.597177 0.597177
0.603738 0.603738 0.603738
0.610315 0.610315 0.610315
0.616876 0.616876 0.616876
0.623438 0.623438 0.623438
0.629999 0.629999 0.629999
0.636561 0.636561 0.636561
0.643122 0.643122 0.643122
0.649683 0.649683 0.649683
0.656245 0.656245 0.656245
0.662806 0.662806 0.662806
0.669367 0.669367 0.669367
0.675929 0.675929 0.675929
0.68249 0.68249 0.68249
0.689052 0.689052 0.689052
0.695628 0.695628 0.695628
0.70219 0.70219 0.70219
0.708751 0.708751 0.708751
0.715312 0.715312 0.715312
0.721874 0.721874 0.721874
0.728435 0.728435 0.728435
0.734997 0.734997 0.734997
0.546868 0.546868 0.546868
0.553429 0.553429 0.553429
0.559991 0.559991 0.559991
0.566552 0.566552 0.566552
0.573114 0.573114 0.573114
0.579675 0.579675 0.579675
0.586252 0.586252 0.586252
0.592813 0.592813 0.592813
0.599374 0.599374 0.599374
0.605936 0.605936 0.605936
0.612497 0.612497 0.612497
0.619058 0.619058 0.619058
0.62562 0.62562 0.62562
0.632181 0.632181 0.632181
0.638743 0.638743 0.638743
0.645304 0.645304 0.645304
0.651865 0.651865 0.651865
0.658427 0.658427 0.658427
0.665003 0.665003 0.665003
0.671565 0.671565 0.671565
0.678126 0.678126 0.678126
0.684688 0.684688 0.684688
0.691249 0.691249 0.691249
0.69781 0.69781 0.69781
0.704372 0.704372 0.704372
0.710933 0.710933 0.710933
0.717494 0.717494 0.717494
0.724056 0.724056 0.724056
0.730617 0.730617 0.730617
0.737179 0.737179 0.737179
0.74374 0.74374 0.74374
0.750317 0.750317 0.750317
0.756878 0.756878 0.756878
0.56875 0.56875 0.56875
0.575311 0.575311 0.575311
0.581872 0.581872 0.581872
0.588434 0.588434 0.588434
0.594995 0.594995 0.594995
0.601556 0.601556 0.601556
0.608118 0.608118 0.608118
0.614679 0.614679 0.614679
0.621241 0.621241 0.621241
0.627802 0.627802 0.627802
0.634363 0.634363 0.634363
0.64094 0.64094 0.64094
0.647501 0.647501 0.647501
0.654063 0.654063 0.654063
0.660624 0.660624 0.660624
0.667185 0.667185 0.667185
0.673747 0.673747 0.673747
0.680308 0.680308 0.680308
0.68687 0.68687 0.68687
0.693431 0.693431 0.693431
0.699992 0.699992 0.699992
0.706554 0.706554 0.706554
0.713115 0.713115 0.713115
0.719692 0.719692 0.719692
0.726253 0.726253 0.726253
0.732815 0.732815 0.732815
0.739376 0.739376 0.739376
0.745937 0.745937 0.745937
0.752499 0.752499 0.752499
0.75906 0.75906 0.75906
0.765621 0.765621 0.765621
0.772183 0.772183 0.772183
0.778744 0.778744 0.778744
0.590631 0.590631 0.590631
0.597177 0.597177 0.597177
0.603738 0.603738 0.603738
